X:526
T:Pase el agoa
Z:Jack Campin, http://www.campin.me.uk/
F:Jack Campin's Nine-Note Tunebook
% last edit 03-02-2013
C:Juan del Encina 
M:6/8
L:1/8
Q:3/8=116
K:EMin
          B3  d2d|        B3  G3   |        AAA AB2|G3 F3|
          B3  d2d|        B3  A2A  |        B2A GF2|E6  ||
|:[M:6/8] EEE E2E|[M:3/4] F2 E2 ^D2|[M:3/8] E3    :|
  [M:6/8] A2A A2A|        A2A A2A  |        AAA AB2|G3 F3|
          B3  d2d|        B3  A2A  |        B2A GF2|E6  |]

